X:3589
L:1/8
M:6/8
K:G
 g2 g gdB | gdB A3 | B>cd efg | aeg f>ed/c/ | Bdg Bdg | Bdg f2 e | a>ba/g/ fdg | g2 f g3 :| 
 BAG BAG | Bdd d2 ^d | eBe egf/e/ | (d3 d2) f | gfe bBe/f/ | gfe b^de | e>fg f2 e | (e3 e2) e/f/ | 
 g>fe dcB | ABG FAD | G>AB B>AG | (d3 d2) | e>fg dcB | c>de e>fg/a/ | fdg gaf | g6 ||

